trunk/public/assets/images/icons/grey/room-request.svg

<svg width="16" height="16" xmlns="http://www.w3.org/2000/svg" viewBox="0 0 16 16" shape-rendering="geometricPrecision" fill="#6e6e6e"><path d="M11.236 3.388c0-.045.005-.09.005-.137C11.24 1.46 9.79.01 8 .01 6.607.01 5.43.883 4.966 2.11l1.312.402c.283-.668.946-1.137 1.72-1.137 1.032 0 1.872.838 1.872 1.873 0 .525-.222 1.002-.572 1.342-.582.624-1.028.624-2.172 1.24-1.83.98-2.275 2.51-2.37 3.413v6.746h6.484V3.39h-.006zM7.892 15.046h-.01c-.53 0-.9-.4-.9-.932 0-.555.378-.934.91-.934.556 0 .913.38.923.934 0 .53-.368.932-.923.932zm1.24-3.82c-.38.418-.532.818-.52 1.28v.185H7.247l-.01-.267c-.03-.523.145-1.055.605-1.598.327-.398.594-.73.594-1.074 0-.358-.235-.595-.748-.614-.34 0-.75.123-1.016.307l-.35-1.116c.38-.215.985-.42 1.712-.42 1.354 0 1.967.746 1.967 1.598 0 .78-.483 1.29-.87 1.72z"/></svg>

<?xml version="1.0"?><!DOCTYPE svg PUBLIC "-//W3C//DTD SVG 1.1//EN" "http://www.w3.org/Graphics/SVG/1.1/DTD/svg11.dtd"><svg width="16px" height="16px" xmlns="http://www.w3.org/2000/svg" viewBox="0 0 16 16" shape-rendering="geometricPrecision" fill="#6e6e6e"><g><path d="M11.236,3.388c0.001-0.045,0.005-0.09,0.005-0.137c0-1.791-1.451-3.242-3.242-3.242 c-1.391,0-2.57,0.875-3.032,2.103l1.312,0.402c0.284-0.668,0.947-1.137,1.72-1.137c1.033,0,1.873,0.838,1.873,1.873 c0,0.525-0.222,1.002-0.572,1.342C8.718,5.216,8.272,5.216,7.128,5.831c-1.83,0.981-2.275,2.51-2.371,3.414v6.746h6.485V3.388 H11.236z M7.892,15.046h-0.01c-0.531,0-0.9-0.4-0.9-0.932c0-0.555,0.378-0.934,0.911-0.934c0.555,0,0.912,0.379,0.922,0.934 C8.814,14.645,8.447,15.046,7.892,15.046z M9.132,11.226c-0.379,0.418-0.532,0.818-0.521,1.279v0.186H7.248l-0.009-0.268 c-0.031-0.523,0.144-1.055,0.604-1.598c0.327-0.398,0.594-0.729,0.594-1.074c0-0.359-0.235-0.596-0.748-0.615 c-0.338,0-0.748,0.123-1.015,0.307L6.325,8.327c0.38-0.215,0.984-0.42,1.711-0.42c1.354,0,1.967,0.746,1.967,1.598 C10.002,10.284,9.52,10.794,9.132,11.226z"/></g></svg>
